images/3233674.svg

<?xml version="1.0" encoding="UTF-8"?>
<svg xmlns="http://www.w3.org/2000/svg" xmlns:xlink="http://www.w3.org/1999/xlink" width="300pt" height="300pt" viewBox="0 0 300 300" version="1.1">
<defs>
<g>
<symbol overflow="visible" id="glyph0-0">
<path style="stroke:none;" d="M 0.453125 1.59375 L 0.453125 -6.34375 L 4.953125 -6.34375 L 4.953125 1.59375 Z M 0.953125 1.09375 L 4.453125 1.09375 L 4.453125 -5.84375 L 0.953125 -5.84375 Z M 0.953125 1.09375 "/>
</symbol>
<symbol overflow="visible" id="glyph0-1">
<path style="stroke:none;" d="M 3.546875 -5.953125 C 2.898438 -5.953125 2.382812 -5.710938 2 -5.234375 C 1.625 -4.753906 1.4375 -4.101562 1.4375 -3.28125 C 1.4375 -2.445312 1.625 -1.789062 2 -1.3125 C 2.382812 -0.832031 2.898438 -0.59375 3.546875 -0.59375 C 4.191406 -0.59375 4.703125 -0.832031 5.078125 -1.3125 C 5.453125 -1.789062 5.640625 -2.445312 5.640625 -3.28125 C 5.640625 -4.101562 5.453125 -4.753906 5.078125 -5.234375 C 4.703125 -5.710938 4.191406 -5.953125 3.546875 -5.953125 Z M 3.546875 -6.6875 C 4.460938 -6.6875 5.195312 -6.375 5.75 -5.75 C 6.300781 -5.132812 6.578125 -4.3125 6.578125 -3.28125 C 6.578125 -2.238281 6.300781 -1.410156 5.75 -0.796875 C 5.195312 -0.179688 4.460938 0.125 3.546875 0.125 C 2.617188 0.125 1.878906 -0.179688 1.328125 -0.796875 C 0.773438 -1.410156 0.5 -2.238281 0.5 -3.28125 C 0.5 -4.3125 0.773438 -5.132812 1.328125 -5.75 C 1.878906 -6.375 2.617188 -6.6875 3.546875 -6.6875 Z M 3.546875 -6.6875 "/>
</symbol>
<symbol overflow="visible" id="glyph0-2">
<path style="stroke:none;" d="M 0.890625 -6.5625 L 2.078125 -6.5625 L 4.984375 -1.078125 L 4.984375 -6.5625 L 5.84375 -6.5625 L 5.84375 0 L 4.65625 0 L 1.75 -5.484375 L 1.75 0 L 0.890625 0 Z M 0.890625 -6.5625 "/>
</symbol>
</g>
</defs>
<g id="surface33373">
<rect x="0" y="0" width="300" height="300" style="fill:rgb(100%,100%,100%);fill-opacity:1;stroke:none;"/>
<path style="fill:none;stroke-width:1.2;stroke-linecap:butt;stroke-linejoin:miter;stroke:rgb(0%,0%,0%);stroke-opacity:1;stroke-miterlimit:10;" d="M 35.25 183.777344 L 45.734375 180.535156 "/>
<path style="fill:none;stroke-width:1.2;stroke-linecap:butt;stroke-linejoin:miter;stroke:rgb(100%,0%,0%);stroke-opacity:1;stroke-miterlimit:10;" d="M 45.734375 180.535156 L 56.21875 177.289062 "/>
<path style="fill:none;stroke-width:1.2;stroke-linecap:butt;stroke-linejoin:miter;stroke:rgb(100%,0%,0%);stroke-opacity:1;stroke-miterlimit:10;" d="M 56.21875 177.289062 L 58.652344 166.585938 "/>
<path style="fill:none;stroke-width:1.2;stroke-linecap:butt;stroke-linejoin:miter;stroke:rgb(0%,0%,0%);stroke-opacity:1;stroke-miterlimit:10;" d="M 58.652344 166.585938 L 61.085938 155.882812 "/>
<path style=" stroke:none;fill-rule:nonzero;fill:rgb(100%,100%,100%);fill-opacity:1;" d="M 52.21875 171.789062 L 60.21875 171.789062 L 60.21875 182.789062 L 52.21875 182.789062 Z M 52.21875 171.789062 "/>
<g style="fill:rgb(100%,0%,0%);fill-opacity:1;">
  <use xlink:href="#glyph0-1" x="52.21875" y="180.452148"/>
</g>
<path style="fill:none;stroke-width:1.2;stroke-linecap:butt;stroke-linejoin:miter;stroke:rgb(0%,0%,0%);stroke-opacity:1;stroke-miterlimit:10;" d="M 61.085938 155.882812 L 44.980469 140.96875 "/>
<path style="fill:none;stroke-width:1.2;stroke-linecap:butt;stroke-linejoin:miter;stroke:rgb(0%,0%,0%);stroke-opacity:1;stroke-miterlimit:10;" d="M 62.984375 150.601562 L 50.097656 138.671875 "/>
<path style="fill:none;stroke-width:1.2;stroke-linecap:butt;stroke-linejoin:miter;stroke:rgb(0%,0%,0%);stroke-opacity:1;stroke-miterlimit:10;" d="M 82.054688 149.394531 L 61.085938 155.882812 "/>
<path style="fill:none;stroke-width:1.2;stroke-linecap:butt;stroke-linejoin:miter;stroke:rgb(0%,0%,0%);stroke-opacity:1;stroke-miterlimit:10;" d="M 44.980469 140.96875 L 49.84375 119.5625 "/>
<path style="fill:none;stroke-width:1.2;stroke-linecap:butt;stroke-linejoin:miter;stroke:rgb(0%,0%,0%);stroke-opacity:1;stroke-miterlimit:10;" d="M 49.84375 119.5625 L 70.8125 113.074219 "/>
<path style="fill:none;stroke-width:1.2;stroke-linecap:butt;stroke-linejoin:miter;stroke:rgb(0%,0%,0%);stroke-opacity:1;stroke-miterlimit:10;" d="M 53.46875 123.847656 L 70.242188 118.65625 "/>
<path style="fill:none;stroke-width:1.2;stroke-linecap:butt;stroke-linejoin:miter;stroke:rgb(0%,0%,0%);stroke-opacity:1;stroke-miterlimit:10;" d="M 70.8125 113.074219 L 86.917969 127.988281 "/>
<path style="fill:none;stroke-width:1.2;stroke-linecap:butt;stroke-linejoin:miter;stroke:rgb(0%,0%,0%);stroke-opacity:1;stroke-miterlimit:10;" d="M 86.917969 127.988281 L 82.054688 149.394531 "/>
<path style="fill:none;stroke-width:1.2;stroke-linecap:butt;stroke-linejoin:miter;stroke:rgb(0%,0%,0%);stroke-opacity:1;stroke-miterlimit:10;" d="M 81.394531 128.984375 L 77.503906 146.109375 "/>
<path style="fill:none;stroke-width:1.2;stroke-linecap:butt;stroke-linejoin:miter;stroke:rgb(0%,0%,0%);stroke-opacity:1;stroke-miterlimit:10;" d="M 82.054688 149.394531 L 98.160156 164.308594 "/>
<path style="fill:none;stroke-width:1.2;stroke-linecap:butt;stroke-linejoin:miter;stroke:rgb(0%,0%,0%);stroke-opacity:1;stroke-miterlimit:10;" d="M 98.160156 164.308594 L 108.644531 161.066406 "/>
<path style="fill:none;stroke-width:1.2;stroke-linecap:butt;stroke-linejoin:miter;stroke:rgb(0%,0%,100%);stroke-opacity:1;stroke-miterlimit:10;" d="M 108.644531 161.066406 L 119.128906 157.820312 "/>
<path style="fill:none;stroke-width:1.2;stroke-linecap:butt;stroke-linejoin:miter;stroke:rgb(0%,0%,100%);stroke-opacity:1;stroke-miterlimit:10;" d="M 119.128906 157.820312 L 122.667969 147.429688 "/>
<path style="fill:none;stroke-width:1.2;stroke-linecap:butt;stroke-linejoin:miter;stroke:rgb(0%,0%,0%);stroke-opacity:1;stroke-miterlimit:10;" d="M 122.667969 147.429688 L 126.203125 137.039062 "/>
<path style="fill:none;stroke-width:1.2;stroke-linecap:butt;stroke-linejoin:miter;stroke:rgb(0%,0%,0%);stroke-opacity:1;stroke-miterlimit:10;" d="M 136.703125 170.96875 L 127.917969 164.394531 "/>
<path style="fill:none;stroke-width:1.2;stroke-linecap:butt;stroke-linejoin:miter;stroke:rgb(0%,0%,100%);stroke-opacity:1;stroke-miterlimit:10;" d="M 127.917969 164.394531 L 119.128906 157.820312 "/>
<path style=" stroke:none;fill-rule:nonzero;fill:rgb(100%,100%,100%);fill-opacity:1;" d="M 116.128906 152.320312 L 123.128906 152.320312 L 123.128906 163.320312 L 116.128906 163.320312 Z M 116.128906 152.320312 "/>
<g style="fill:rgb(0%,0%,100%);fill-opacity:1;">
  <use xlink:href="#glyph0-2" x="116.128906" y="160.983398"/>
</g>
<path style="fill:none;stroke-width:1.2;stroke-linecap:butt;stroke-linejoin:miter;stroke:rgb(0%,0%,0%);stroke-opacity:1;stroke-miterlimit:10;" d="M 126.203125 137.039062 L 148.152344 137.347656 "/>
<path style=" stroke:none;fill-rule:nonzero;fill:rgb(0%,0%,0%);fill-opacity:1;" d="M 154.644531 158.316406 L 151.855469 136.203125 L 144.453125 138.492188 Z M 154.644531 158.316406 "/>
<path style="fill:none;stroke-width:1.2;stroke-linecap:butt;stroke-linejoin:miter;stroke:rgb(0%,0%,0%);stroke-opacity:1;stroke-miterlimit:10;" d="M 154.644531 158.316406 L 136.703125 170.96875 "/>
<path style="fill:none;stroke-width:1.2;stroke-linecap:butt;stroke-linejoin:miter;stroke:rgb(0%,0%,0%);stroke-opacity:1;stroke-miterlimit:10;" d="M 154.644531 158.316406 L 158.90625 179.851562 "/>
<path style="fill:none;stroke-width:1.2;stroke-linecap:butt;stroke-linejoin:miter;stroke:rgb(0%,0%,0%);stroke-opacity:1;stroke-miterlimit:10;" d="M 171.160156 143.859375 L 154.644531 158.316406 "/>
<path style="fill:none;stroke-width:1.2;stroke-linecap:butt;stroke-linejoin:miter;stroke:rgb(0%,0%,0%);stroke-opacity:1;stroke-miterlimit:10;" d="M 158.90625 179.851562 L 179.683594 186.925781 "/>
<path style="fill:none;stroke-width:1.2;stroke-linecap:butt;stroke-linejoin:miter;stroke:rgb(0%,0%,0%);stroke-opacity:1;stroke-miterlimit:10;" d="M 179.683594 186.925781 L 196.203125 172.46875 "/>
<path style="fill:none;stroke-width:1.2;stroke-linecap:butt;stroke-linejoin:miter;stroke:rgb(0%,0%,0%);stroke-opacity:1;stroke-miterlimit:10;" d="M 196.203125 172.46875 L 194.070312 161.703125 "/>
<path style="fill:none;stroke-width:1.2;stroke-linecap:butt;stroke-linejoin:miter;stroke:rgb(0%,0%,100%);stroke-opacity:1;stroke-miterlimit:10;" d="M 194.070312 161.703125 L 191.9375 150.933594 "/>
<path style="fill:none;stroke-width:1.2;stroke-linecap:butt;stroke-linejoin:miter;stroke:rgb(0%,0%,100%);stroke-opacity:1;stroke-miterlimit:10;" d="M 191.9375 150.933594 L 181.550781 147.398438 "/>
<path style="fill:none;stroke-width:1.2;stroke-linecap:butt;stroke-linejoin:miter;stroke:rgb(0%,0%,0%);stroke-opacity:1;stroke-miterlimit:10;" d="M 181.550781 147.398438 L 171.160156 143.859375 "/>
<path style="fill:none;stroke-width:1.2;stroke-linecap:butt;stroke-linejoin:miter;stroke:rgb(0%,0%,100%);stroke-opacity:1;stroke-miterlimit:10;" d="M 191.9375 150.933594 L 200.199219 143.707031 "/>
<path style="fill:none;stroke-width:1.2;stroke-linecap:butt;stroke-linejoin:miter;stroke:rgb(0%,0%,0%);stroke-opacity:1;stroke-miterlimit:10;" d="M 200.199219 143.707031 L 208.457031 136.476562 "/>
<path style=" stroke:none;fill-rule:nonzero;fill:rgb(100%,100%,100%);fill-opacity:1;" d="M 188.9375 145.433594 L 195.9375 145.433594 L 195.9375 156.433594 L 188.9375 156.433594 Z M 188.9375 145.433594 "/>
<g style="fill:rgb(0%,0%,100%);fill-opacity:1;">
  <use xlink:href="#glyph0-2" x="188.9375" y="154.09668"/>
</g>
<path style="fill:none;stroke-width:1.2;stroke-linecap:butt;stroke-linejoin:miter;stroke:rgb(0%,0%,0%);stroke-opacity:1;stroke-miterlimit:10;" d="M 210.988281 135.976562 L 208.859375 125.210938 "/>
<path style="fill:none;stroke-width:1.2;stroke-linecap:butt;stroke-linejoin:miter;stroke:rgb(100%,0%,0%);stroke-opacity:1;stroke-miterlimit:10;" d="M 208.859375 125.210938 L 206.726562 114.441406 "/>
<path style="fill:none;stroke-width:1.2;stroke-linecap:butt;stroke-linejoin:miter;stroke:rgb(0%,0%,0%);stroke-opacity:1;stroke-miterlimit:10;" d="M 205.921875 136.980469 L 203.792969 126.210938 "/>
<path style="fill:none;stroke-width:1.2;stroke-linecap:butt;stroke-linejoin:miter;stroke:rgb(100%,0%,0%);stroke-opacity:1;stroke-miterlimit:10;" d="M 203.792969 126.210938 L 201.660156 115.445312 "/>
<path style="fill:none;stroke-width:1.2;stroke-linecap:butt;stroke-linejoin:miter;stroke:rgb(0%,0%,0%);stroke-opacity:1;stroke-miterlimit:10;" d="M 208.457031 136.476562 L 229.234375 143.550781 "/>
<path style=" stroke:none;fill-rule:nonzero;fill:rgb(100%,100%,100%);fill-opacity:1;" d="M 200.195312 109.445312 L 208.195312 109.445312 L 208.195312 120.445312 L 200.195312 120.445312 Z M 200.195312 109.445312 "/>
<g style="fill:rgb(100%,0%,0%);fill-opacity:1;">
  <use xlink:href="#glyph0-1" x="200.195312" y="118.108398"/>
</g>
<path style="fill:none;stroke-width:1.2;stroke-linecap:butt;stroke-linejoin:miter;stroke:rgb(0%,0%,0%);stroke-opacity:1;stroke-miterlimit:10;" d="M 229.234375 143.550781 L 247.175781 130.902344 "/>
<path style="fill:none;stroke-width:1.2;stroke-linecap:butt;stroke-linejoin:miter;stroke:rgb(0%,0%,0%);stroke-opacity:1;stroke-miterlimit:10;" d="M 234.007812 146.507812 L 248.355469 136.386719 "/>
<path style="fill:none;stroke-width:1.2;stroke-linecap:butt;stroke-linejoin:miter;stroke:rgb(100%,0%,0%);stroke-opacity:1;stroke-miterlimit:10;" d="M 235.726562 164.523438 L 232.480469 154.039062 "/>
<path style="fill:none;stroke-width:1.2;stroke-linecap:butt;stroke-linejoin:miter;stroke:rgb(0%,0%,0%);stroke-opacity:1;stroke-miterlimit:10;" d="M 232.480469 154.039062 L 229.234375 143.550781 "/>
<path style="fill:none;stroke-width:1.2;stroke-linecap:butt;stroke-linejoin:miter;stroke:rgb(0%,0%,0%);stroke-opacity:1;stroke-miterlimit:10;" d="M 247.175781 130.902344 L 264.75 144.050781 "/>
<path style="fill:none;stroke-width:1.2;stroke-linecap:butt;stroke-linejoin:miter;stroke:rgb(0%,0%,0%);stroke-opacity:1;stroke-miterlimit:10;" d="M 264.75 144.050781 L 257.675781 164.832031 "/>
<path style="fill:none;stroke-width:1.2;stroke-linecap:butt;stroke-linejoin:miter;stroke:rgb(0%,0%,0%);stroke-opacity:1;stroke-miterlimit:10;" d="M 259.152344 144.464844 L 253.492188 161.085938 "/>
<path style="fill:none;stroke-width:1.2;stroke-linecap:butt;stroke-linejoin:miter;stroke:rgb(0%,0%,0%);stroke-opacity:1;stroke-miterlimit:10;" d="M 257.675781 164.832031 L 246.699219 164.675781 "/>
<path style="fill:none;stroke-width:1.2;stroke-linecap:butt;stroke-linejoin:miter;stroke:rgb(100%,0%,0%);stroke-opacity:1;stroke-miterlimit:10;" d="M 246.699219 164.675781 L 235.726562 164.523438 "/>
<path style=" stroke:none;fill-rule:nonzero;fill:rgb(100%,100%,100%);fill-opacity:1;" d="M 231.726562 159.023438 L 239.726562 159.023438 L 239.726562 170.023438 L 231.726562 170.023438 Z M 231.726562 159.023438 "/>
<g style="fill:rgb(100%,0%,0%);fill-opacity:1;">
  <use xlink:href="#glyph0-1" x="231.726562" y="167.686523"/>
</g>
</g>
</svg>

<svg xmlns="http://www.w3.org/2000/svg" xmlns:xlink="http://www.w3.org/1999/xlink" width="300pt" height="300pt" viewBox="0 0 300 300"><defs><symbol overflow="visible"><path d="M.453 1.594v-7.938h4.5v7.938zm.5-.5h3.5v-6.938h-3.5zm0 0"/></symbol><symbol overflow="visible" id="a"><path d="M3.547-5.953c-.65 0-1.164.242-1.547.72-.375.48-.563 1.13-.563 1.952 0 .835.188 1.49.563 1.967.383.48.898.72 1.547.72.644 0 1.156-.24 1.53-.72.376-.476.564-1.132.564-1.968 0-.822-.187-1.474-.562-1.954-.375-.477-.887-.72-1.53-.72zm0-.734c.914 0 1.648.312 2.203.937.55.617.828 1.438.828 2.47 0 1.042-.277 1.87-.828 2.483-.555.617-1.29.922-2.203.922-.93 0-1.668-.305-2.22-.922C.774-1.41.5-2.237.5-3.28c0-1.033.273-1.853.828-2.47.55-.625 1.29-.938 2.22-.938zm0 0"/></symbol><symbol overflow="visible" id="b"><path d="M.89-6.563H2.08l2.906 5.485v-5.484h.86V0H4.656L1.75-5.484V0H.89zm0 0"/></symbol></defs><g><path fill="#fff" d="M0 0h300v300H0z"/><path d="M35.25 183.777l10.484-3.242" stroke-width="1.2" stroke="#000" stroke-miterlimit="10" fill="none"/><path d="M45.734 180.535l10.485-3.246M56.22 177.29l2.432-10.704" stroke-width="1.2" stroke="#f00" stroke-miterlimit="10" fill="none"/><path d="M58.652 166.586l2.434-10.703" stroke-width="1.2" stroke="#000" stroke-miterlimit="10" fill="none"/><path d="M52.22 171.79h8v11h-8zm0 0" fill="#fff"/><use xlink:href="#a" x="52.219" y="180.452" fill="#f00"/><path d="M61.086 155.883L44.98 140.97M62.984 150.602l-12.886-11.93M82.055 149.395l-20.97 6.488M44.98 140.97l4.864-21.407M49.844 119.563l20.968-6.49M53.47 123.848l16.772-5.192M70.813 113.074l16.105 14.914M86.918 127.988l-4.863 21.407M81.395 128.984l-3.89 17.125M82.055 149.395L98.16 164.31M98.16 164.31l10.485-3.244" stroke-width="1.2" stroke="#000" stroke-miterlimit="10" fill="none"/><path d="M108.645 161.066l10.484-3.246M119.13 157.82l3.538-10.39" stroke-width="1.2" stroke="#00f" stroke-miterlimit="10" fill="none"/><path d="M122.668 147.43l3.535-10.39M136.703 170.97l-8.785-6.575" stroke-width="1.2" stroke="#000" stroke-miterlimit="10" fill="none"/><path d="M127.918 164.395l-8.79-6.575" stroke-width="1.2" stroke="#00f" stroke-miterlimit="10" fill="none"/><path d="M116.13 152.32h7v11h-7zm0 0" fill="#fff"/><use xlink:href="#b" x="116.129" y="160.983" fill="#00f"/><path d="M126.203 137.04l21.95.308" stroke-width="1.2" stroke="#000" stroke-miterlimit="10" fill="none"/><path d="M154.645 158.316l-2.79-22.113-7.402 2.29zm0 0"/><path d="M154.645 158.316l-17.942 12.653M154.645 158.316l4.26 21.536M171.16 143.86l-16.515 14.456M158.906 179.852l20.778 7.074M179.684 186.926l16.52-14.457M196.203 172.47l-2.133-10.767" stroke-width="1.2" stroke="#000" stroke-miterlimit="10" fill="none"/><path d="M194.07 161.703l-2.132-10.77M191.938 150.934l-10.387-3.536" stroke-width="1.2" stroke="#00f" stroke-miterlimit="10" fill="none"/><path d="M181.55 147.398l-10.39-3.54" stroke-width="1.2" stroke="#000" stroke-miterlimit="10" fill="none"/><path d="M191.938 150.934l8.26-7.227" stroke-width="1.2" stroke="#00f" stroke-miterlimit="10" fill="none"/><path d="M200.2 143.707l8.257-7.23" stroke-width="1.2" stroke="#000" stroke-miterlimit="10" fill="none"/><path d="M188.938 145.434h7v11h-7zm0 0" fill="#fff"/><use xlink:href="#b" x="188.938" y="154.097" fill="#00f"/><path d="M210.988 135.977l-2.13-10.766" stroke-width="1.2" stroke="#000" stroke-miterlimit="10" fill="none"/><path d="M208.86 125.21l-2.133-10.77" stroke-width="1.2" stroke="#f00" stroke-miterlimit="10" fill="none"/><path d="M205.922 136.98l-2.13-10.77" stroke-width="1.2" stroke="#000" stroke-miterlimit="10" fill="none"/><path d="M203.793 126.21l-2.133-10.765" stroke-width="1.2" stroke="#f00" stroke-miterlimit="10" fill="none"/><path d="M208.457 136.477l20.777 7.074" stroke-width="1.2" stroke="#000" stroke-miterlimit="10" fill="none"/><path d="M200.195 109.445h8v11h-8zm0 0" fill="#fff"/><use xlink:href="#a" x="200.195" y="118.108" fill="#f00"/><path d="M229.234 143.55l17.942-12.648M234.008 146.508l14.347-10.12" stroke-width="1.2" stroke="#000" stroke-miterlimit="10" fill="none"/><path d="M235.727 164.523l-3.247-10.484" stroke-width="1.2" stroke="#f00" stroke-miterlimit="10" fill="none"/><path d="M232.48 154.04l-3.246-10.49M247.176 130.902l17.574 13.15M264.75 144.05l-7.074 20.782M259.152 144.465l-5.66 16.62M257.676 164.832l-10.977-.156" stroke-width="1.2" stroke="#000" stroke-miterlimit="10" fill="none"/><path d="M246.7 164.676l-10.973-.153" stroke-width="1.2" stroke="#f00" stroke-miterlimit="10" fill="none"/><path d="M231.727 159.023h8v11h-8zm0 0" fill="#fff"/><use xlink:href="#a" x="231.727" y="167.687" fill="#f00"/></g></svg>
